Yaru++/actions/16/zoom-fit-selection.svg

<svg height="16" width="16" xmlns="http://www.w3.org/2000/svg"><g fill="#808080"><path d="m5.994 1.9999998c-1.258.015-2.179-.03-2.932.385a1.88 1.88 0 0 0 -.837.998c-.165.4370001-.225.96-.225 1.617v2.0000001h1v-2.0000001c0-.5919999.063-1.0059999.16-1.266.098-.26.201-.371.385-.4719999.365-.2020001 1.195-.2470001 2.455-.2620001h1v-1h-1.002zm3.0059997 0v1h1.0000003c1.258.015 2.087.06 2.453.2620001.183.1.29.2119999.387.4719999.097.2600001.16.6740001.16 1.266v2.0000001h1v-2.0000001c0-.6579999-.06-1.179-.225-1.617a1.88 1.88 0 0 0 -.838-.998c-.752-.4159999-1.673-.37-2.931-.385h-.004zm-6.9999997 7.0000002v2c0 .658.06 1.179.225 1.617.164.439.461.79.837.998.753.416 1.674.37 2.932.385h1.006v-1h-1c-1.259-.015-2.09-.06-2.455-.262-.184-.1-.287-.212-.385-.472-.097-.26-.16-.674-.16-1.266v-2zm11 0v2c0 .592-.063 1.006-.16 1.266-.098.26-.202.371-.385.472-.366.202-1.197.247-2.455.262h-1.0000003v1h1.0060003c1.258-.015 2.179.03 2.932-.385a1.88 1.88 0 0 0 .837-.998c.165-.438.225-.96.225-1.617v-2z"/><path d="m11.5 4.4999998v7.0000002h-7.0000001v-7.0000002z"/></g></svg>

<?xml version="1.0" encoding="UTF-8" standalone="no"?>
<svg
   xmlns:dc="http://purl.org/dc/elements/1.1/"
   xmlns:cc="http://creativecommons.org/ns#"
   xmlns:rdf="http://www.w3.org/1999/02/22-rdf-syntax-ns#"
   xmlns:svg="http://www.w3.org/2000/svg"
   xmlns="http://www.w3.org/2000/svg"
   xmlns:sodipodi="http://sodipodi.sourceforge.net/DTD/sodipodi-0.dtd"
   xmlns:inkscape="http://www.inkscape.org/namespaces/inkscape"
   width="16"
   height="16"
   version="1.1"
   id="svg34"
   sodipodi:docname="zoom-fit-selection.svg"
   inkscape:version="0.92.4 (5da689c313, 2019-01-14)">
  <metadata
     id="metadata40">
    <rdf:RDF>
      <cc:Work
         rdf:about="">
        <dc:format>image/svg+xml</dc:format>
        <dc:type
           rdf:resource="http://purl.org/dc/dcmitype/StillImage" />
      </cc:Work>
    </rdf:RDF>
  </metadata>
  <defs
     id="defs38" />
  <sodipodi:namedview
     pagecolor="#ffffff"
     bordercolor="#666666"
     borderopacity="1"
     objecttolerance="10"
     gridtolerance="10"
     guidetolerance="10"
     inkscape:pageopacity="0"
     inkscape:pageshadow="2"
     inkscape:window-width="1920"
     inkscape:window-height="1016"
     id="namedview36"
     showgrid="false"
     inkscape:zoom="52.4375"
     inkscape:cx="3.794994"
     inkscape:cy="8"
     inkscape:window-x="0"
     inkscape:window-y="27"
     inkscape:window-maximized="1"
     inkscape:current-layer="svg34" />
  <path
     d="m 5.994,1.9999998 c -1.258,0.015 -2.179,-0.03 -2.932,0.385 a 1.88,1.88 0 0 0 -0.837,0.998 C 2.06,3.8199999 2,4.3429998 2,4.9999998 V 6.9999999 H 3 V 4.9999998 c 0,-0.5919999 0.063,-1.0059999 0.16,-1.266 0.098,-0.26 0.201,-0.371 0.385,-0.4719999 C 3.91,3.0599998 4.74,3.0149998 6,2.9999998 h 1 v -1 H 5.998 Z m 3.0059997,0 v 1 H 10 c 1.258,0.015 2.087,0.06 2.453,0.2620001 0.183,0.1 0.29,0.2119999 0.387,0.4719999 0.097,0.2600001 0.16,0.6740001 0.16,1.266 v 2.0000001 h 1 V 4.9999998 c 0,-0.6579999 -0.06,-1.179 -0.225,-1.617 a 1.88,1.88 0 0 0 -0.838,-0.998 c -0.752,-0.4159999 -1.673,-0.37 -2.931,-0.385 H 10.002 Z M 2,9 v 2 c 0,0.658 0.06,1.179 0.225,1.617 0.164,0.439 0.461,0.79 0.837,0.998 0.753,0.416 1.674,0.37 2.932,0.385 H 7 V 13 H 6 C 4.741,12.985 3.91,12.94 3.545,12.738 3.361,12.638 3.258,12.526 3.16,12.266 3.063,12.006 3,11.592 3,11 V 9 Z m 11,0 v 2 c 0,0.592 -0.063,1.006 -0.16,1.266 -0.098,0.26 -0.202,0.371 -0.385,0.472 C 12.089,12.94 11.258,12.985 10,13 H 8.9999997 v 1 H 10.006 c 1.258,-0.015 2.179,0.03 2.932,-0.385 a 1.88,1.88 0 0 0 0.837,-0.998 C 13.94,12.179 14,11.657 14,11 V 9 Z"
     font-weight="400"
     overflow="visible"
     id="path30"
     inkscape:connector-curvature="0"
     style="color:#000000;font-weight:400;font-family:sans-serif;overflow:visible;fill:#808080;stroke-width:1" />
  <path
     class="ColorScheme-Text"
     d="M 11.5,4.4999998 V 11.5 H 4.4999999 V 4.4999998 Z"
     style="fill:#808080;stroke-width:1"
     id="path32"
     inkscape:connector-curvature="0" />
</svg>
